contributed-vectors/lichess_alt.svg

<svg xmlns="http://www.w3.org/2000/svg" xml:space="preserve" style="fill-rule:evenodd;clip-rule:evenodd;stroke-linejoin:round;stroke-miterlimit:2" viewBox="0 0 192 192"><path d="M82.398 31.32s16.153-2.797 28.441-1.296c0 0 6.349-7.372 27.921-8.669 0 0 .341 9.83-4.233 20.684 0 0 30.505 54.229 35.438 64.229 4.933 10-5.6 23.866-24.267 28.8 0 0-9.083-16.533-25.504-26.506-25.882-15.72-38.866-31.078-34.496-49.894 0 0-.639 24.512 36.517 43.788 8.543 4.432 22.664 16.13 26.55 23.278 0 0 16.933-2.533 14-16.8-1.301-6.328-7.217-12.934-15.067-25.303-12.009-18.923-17.882-30.708-23.066-38.297 0 0 4.096-7.992 4.437-13.637 0 0-9.404.459-19.132 8.992a74.067 74.067 0 0 0-13.596-1.252c-37.473 0-67.896 27.922-67.896 62.313 0 34.391 30.082 63.473 67.555 63.473 19.309 0 31.664-3.681 49.312-20.002-6.194 11.891-22.741 25.633-50.638 25.541-39.496-.128-73.562-31.815-73.562-70.345 0-35.127 26.651-64.229 61.286-69.097" style="fill:#4a4a4a" transform="translate(-2.147 -2.145) scale(1.02233)"/></svg>

<?xml version="1.0" encoding="UTF-8" standalone="no"?>
<!DOCTYPE svg PUBLIC "-//W3C//DTD SVG 1.1//EN" "http://www.w3.org/Graphics/SVG/1.1/DTD/svg11.dtd">
<svg width="100%" height="100%" viewBox="0 0 192 192" version="1.1" xmlns="http://www.w3.org/2000/svg" xmlns:xlink="http://www.w3.org/1999/xlink" xml:space="preserve" xmlns:serif="http://www.serif.com/" style="fill-rule:evenodd;clip-rule:evenodd;stroke-linejoin:round;stroke-miterlimit:2;">
    <g transform="matrix(1.02233,0,0,1.02233,-2.14722,-2.14531)">
        <g id="Layer1">
            <path d="M82.398,31.32C82.398,31.32 98.551,28.523 110.839,30.024C110.839,30.024 117.188,22.652 138.76,21.355C138.76,21.355 139.101,31.185 134.527,42.039C134.527,42.039 165.032,96.268 169.965,106.268C174.898,116.268 164.365,130.134 145.698,135.068C145.698,135.068 136.615,118.535 120.194,108.562C94.312,92.842 81.328,77.484 85.698,58.668C85.698,58.668 85.059,83.18 122.215,102.456C130.758,106.888 144.879,118.586 148.765,125.734C148.765,125.734 165.698,123.201 162.765,108.934C161.464,102.606 155.548,96 147.698,83.631C135.689,64.708 129.816,52.923 124.632,45.334C124.632,45.334 128.728,37.342 129.069,31.697C129.069,31.697 119.665,32.156 109.937,40.689C105.544,39.869 100.997,39.437 96.341,39.437C58.868,39.437 28.445,67.359 28.445,101.75C28.445,136.141 58.527,165.223 96,165.223C115.309,165.223 127.664,161.542 145.312,145.221C139.118,157.112 122.571,170.854 94.674,170.762C55.178,170.634 21.112,138.947 21.112,100.417C21.112,65.29 47.763,36.188 82.398,31.32" style="fill:rgb(74,74,74);"/>
        </g>
    </g>
</svg>
